public/avatar/hat/124.svg

<svg xmlns:xlink="http://www.w3.org/1999/xlink" height="92.9" width="100.7" xmlns="http://www.w3.org/2000/svg"><use height="18.6" transform="translate(19.4 37.6)" width="30.6" xlink:href="#a"/><defs><g id="a" fill-rule="evenodd"><path d="m6.8-6.9.5-1 1.15.9q1.15 1.15 1.3 2.55Q10-2.2 9.5-1.8l1.55-.6.25 1.2q.15 1.45-.5 2.65-.8 1.55-3 2.4l-1.05.2L1.05-.3l-7.75 4q-1.75 1-2.15 1.1l-5.75.3.7-1.25q.9-1.4 1.95-2l3.6-.9h1q-2-1.1-4.5-1.1l-7.4.45Q-19-.75-18.05-2q1.95-2.4 5.55-3.1 5.25-1 8.35.15-1.55-2.3-3.1-3.85l-3.1-3 1.6-.35q2.15-.1 4.75 1Q.15-9.4 1.4-7.05L1.15-9.7l-.5-2.25 2.1.55Q5-10.55 5.8-9.2q.95 1.55 1 2.3" fill="#060a12" transform="translate(19.25 12.15)"/><path d="M-1.85 3.8 1 6.3l-2.25.15q-3.85-.9-4.95-.9l-3.25.55.9-1.3q1.05-1.4 1.8-1.6l4.9.6" fill="#969696" transform="translate(19.25 12.15)"/><path d="m-.65 6 .05-.2-.35-3.65L1.4-.35 3.6.1q1.9.5 2.15.75l2 2.2-1.45 1.8-.3-.9-.5.75-.45-1.05-.8.5-.4-.55-.2.25L2.5 3.4l.55 1.05h-1.5l1.2 1.4L1.1 5.4l.2.8L-.65 6" fill="#969696" transform="translate(19.25 12.15)"/><path d="M2.5-3.15q.55-.6.45-3.35-.05-2.9-.8-4.05 3.9 1.45 3.9 9l1.75-4.9Q9.6-4.55 7.75.2 9.4-.35 10.3-1q.2 1.55-3.2 4.55-3.25-1.9-5.5-.8Q-.3 3.7-.65 6q-5.1-2.65-12.45-1.8Q-9.4.95-4.05 1.85-8.5-2.1-17.8-.65q1.25-2.25 5.75-3.2 5.25-1.1 10.3 1.4-.2-2.7-3.6-6.05l-3.3-2.8q2.65 0 6.05 2.35 3.55 2.5 5.1 5.8" fill="#33f14c" transform="translate(19.25 12.15)"/><path d="m4.4 2.1 1.6-1 1.9 1.5-1.15 1.45-.35-1-.65.65-.35-1.1-1 .85V2.1" fill="#ff55c3" transform="translate(19.25 12.15)"/><path d="M4.9-3.85q-.25-3.2-2.25-5.4l-.5-1.3q3.9 1.45 3.9 9l1.75-4.9Q9.6-4.55 7.75.2 9.4-.35 10.3-1q.2 1.55-3.2 4.55Q5.85 2.8 4.5 2.5q.6-4.4.4-6.35" fill="#ff55c3" transform="translate(19.25 12.15)"/><path d="m2.65-8.95.15-.15Q5.65-6.05 4.5 2.5l-2.8.2Q-1.75-.95-7.35-1.9q-5.35-.9-10.25.95 1.6-2.2 5.85-3 5.15-.95 10 1.5-.2-2.7-3.6-6.05l-3.3-2.8q2.65 0 6.05 2.35 3.55 2.5 5.1 5.8 1.25-1.5.15-5.8" fill="#004eea" transform="translate(19.25 12.15)"/><path d="m.55 2.55 1.15.15.6 1.1-1.25.05.1 1-.85-.2.45 1.15-1.6-.1-.4-1.8 1.8-1.35" fill="#33f14c" transform="translate(19.25 12.15)"/><path d="M-17.6-.95q4.9-1.85 10.25-.95 5.6.95 9.05 4.6-2 .9-2.35 3.3-5.1-2.65-12.45-1.8Q-9.4.95-4.05 1.85-8.5-2.1-17.8-.65l.2-.3" fill="#33f14c" transform="translate(19.25 12.15)"/><path d="M1.7 2.7 3.25.6 4.4 2.1v1.35l-.9-1.4-.25 1.25-1.55-.6" fill="#004eea" transform="translate(19.25 12.15)"/><path d="M.75 5.8-.4 5.7h-.2l-2.4-1-3.25-.75h4.55l.4.15-1.15-1-1.4-.7 3.6.3q.05.35.65.2L-3.15.35.25 1.4l1.3 1.05.75 1.35-1.2-.15.05 1.2h-.8l.4.95" fill="#28a735" transform="translate(19.25 12.15)"/><path d="m5-3.7-.5 6.8-.95-.75-.3.95-1.45-.85-.05.25L-.2.7-3.1-.7l-1.15-.35L0-.4l1.55.85L.5-1.65l-1.2-1.5L2.25-1.2l1 1.8.5-3L4.4-.9 5-3.7" fill="#00349d" transform="translate(19.25 12.15)"/><path d="m5.6-.4.2.8 2-3.2.55-1.65L7.6-.1l-.05.75L9.3.35l.85-.4-2.4 3.1-1 1-.1-.9-.9.55-.35-.9-.8.55-.2.1L4.75.8l.15-4.75.7 3.55" fill="#c9449a" transform="translate(19.25 12.15)"/><path d="M-12.85 4.1-11 2.6l2.9-.8 1.1-.1-3.1 1.35 1.5.05-4.25 1" fill="#e2fce7" transform="translate(19.25 12.15)"/><path d="m-9.6-3.55-5.35.65 1.6-.75q1.9-.75 3.65-.75 2.85 0 6 1l-5.9-.15m.6-7.8 4.35 1.15 2.5 1.6-3.1-1.1 1.6 3.35-5.35-5" fill="#9598fb" transform="translate(19.25 12.15)"/><path d="m6.3-2.3.95-2.25.4-2.35v3.25q-.1.6-1.4 1.55l.05-.2" fill="#fec8ed" transform="translate(19.25 12.15)"/></g></defs></svg>

<?xml version="1.0" encoding="UTF-8" standalone="no"?>
<svg xmlns:xlink="http://www.w3.org/1999/xlink" height="92.9px" width="100.7px" xmlns="http://www.w3.org/2000/svg">
  <g transform="matrix(1.0, 0.0, 0.0, 1.0, 38.65, 49.75)">
    <use height="18.6" transform="matrix(1.0, 0.0, 0.0, 1.0, -19.25, -12.15)" width="30.6" xlink:href="#shape0"/>
  </g>
  <defs>
    <g id="shape0" transform="matrix(1.0, 0.0, 0.0, 1.0, 19.25, 12.15)">
      <path d="M6.8 -6.9 L7.3 -7.9 8.45 -7.0 Q9.6 -5.85 9.75 -4.45 10.0 -2.2 9.5 -1.8 L11.05 -2.4 11.3 -1.2 Q11.45 0.25 10.8 1.45 10.0 3.0 7.8 3.85 L6.75 4.05 1.05 -0.3 -6.7 3.7 Q-8.45 4.7 -8.85 4.8 L-14.6 5.1 -13.9 3.85 Q-13.0 2.45 -11.95 1.85 L-8.35 0.95 -7.35 0.95 Q-9.35 -0.15 -11.85 -0.15 L-19.25 0.3 Q-19.0 -0.75 -18.05 -2.0 -16.1 -4.4 -12.5 -5.1 -7.25 -6.1 -4.15 -4.95 -5.7 -7.25 -7.25 -8.8 L-10.35 -11.8 -8.75 -12.15 Q-6.6 -12.25 -4.0 -11.15 0.15 -9.4 1.4 -7.05 L1.15 -9.7 0.65 -11.95 2.75 -11.4 Q5.0 -10.55 5.8 -9.2 6.75 -7.65 6.8 -6.9" fill="#060a12" fill-rule="evenodd" stroke="none"/>
      <path d="M-1.85 3.8 L1.0 6.3 -1.25 6.45 Q-5.1 5.55 -6.2 5.55 L-9.45 6.1 -8.55 4.8 Q-7.5 3.4 -6.75 3.2 L-1.85 3.8" fill="#969696" fill-rule="evenodd" stroke="none"/>
      <path d="M-0.65 6.0 L-0.6 5.8 -0.95 2.15 1.4 -0.35 3.6 0.1 Q5.5 0.6 5.75 0.85 L7.75 3.05 6.3 4.85 6.0 3.95 5.5 4.7 5.05 3.65 4.25 4.15 3.85 3.6 3.65 3.85 2.5 3.4 3.05 4.45 1.55 4.45 2.75 5.85 1.1 5.4 1.3 6.2 -0.65 6.0" fill="#969696" fill-rule="evenodd" stroke="none"/>
      <path d="M2.5 -3.15 Q3.05 -3.75 2.95 -6.5 2.9 -9.4 2.15 -10.55 6.05 -9.1 6.05 -1.55 L7.8 -6.45 Q9.6 -4.55 7.75 0.2 9.4 -0.35 10.3 -1.0 10.5 0.55 7.1 3.55 3.85 1.65 1.6 2.75 -0.3 3.7 -0.65 6.0 -5.75 3.35 -13.1 4.2 -9.4 0.95 -4.05 1.85 -8.5 -2.1 -17.8 -0.65 -16.55 -2.9 -12.05 -3.85 -6.8 -4.95 -1.75 -2.45 -1.95 -5.15 -5.35 -8.5 L-8.65 -11.3 Q-6.0 -11.3 -2.6 -8.95 0.95 -6.45 2.5 -3.15" fill="#33f14c" fill-rule="evenodd" stroke="none"/>
      <path d="M4.4 2.1 L6.0 1.1 7.9 2.6 6.75 4.05 6.4 3.05 5.75 3.7 5.4 2.6 4.4 3.45 4.4 2.1" fill="#ff55c3" fill-rule="evenodd" stroke="none"/>
      <path d="M4.9 -3.85 Q4.65 -7.05 2.65 -9.25 L2.15 -10.55 Q6.05 -9.1 6.05 -1.55 L7.8 -6.45 Q9.6 -4.55 7.75 0.2 9.4 -0.35 10.3 -1.0 10.5 0.55 7.1 3.55 5.85 2.8 4.5 2.5 5.1 -1.9 4.9 -3.85" fill="#ff55c3" fill-rule="evenodd" stroke="none"/>
      <path d="M2.65 -8.95 L2.8 -9.1 Q5.65 -6.05 4.5 2.5 L1.7 2.7 Q-1.75 -0.95 -7.35 -1.9 -12.7 -2.8 -17.6 -0.95 -16.0 -3.15 -11.75 -3.95 -6.6 -4.9 -1.75 -2.45 -1.95 -5.15 -5.35 -8.5 L-8.65 -11.3 Q-6.0 -11.3 -2.6 -8.95 0.95 -6.45 2.5 -3.15 3.75 -4.65 2.65 -8.95" fill="#004eea" fill-rule="evenodd" stroke="none"/>
      <path d="M0.55 2.55 L1.7 2.7 2.3 3.8 1.05 3.85 1.15 4.85 0.3 4.65 0.75 5.8 -0.85 5.7 -1.25 3.9 0.55 2.55" fill="#33f14c" fill-rule="evenodd" stroke="none"/>
      <path d="M-17.6 -0.95 Q-12.7 -2.8 -7.35 -1.9 -1.75 -0.95 1.7 2.7 -0.3 3.6 -0.65 6.0 -5.75 3.35 -13.1 4.2 -9.4 0.95 -4.05 1.85 -8.5 -2.1 -17.8 -0.65 L-17.6 -0.95" fill="#33f14c" fill-rule="evenodd" stroke="none"/>
      <path d="M1.7 2.7 L3.25 0.6 4.4 2.1 4.4 3.45 3.5 2.05 3.25 3.3 1.7 2.7" fill="#004eea" fill-rule="evenodd" stroke="none"/>
      <path d="M0.75 5.8 L-0.4 5.7 -0.6 5.7 -3.0 4.7 -6.25 3.95 -1.7 3.95 -1.3 4.1 -2.45 3.1 -3.85 2.4 -0.25 2.7 Q-0.2 3.05 0.4 2.9 L-3.15 0.35 0.25 1.4 1.55 2.45 2.3 3.8 1.1 3.65 1.15 4.85 0.35 4.85 0.75 5.8" fill="#28a735" fill-rule="evenodd" stroke="none"/>
      <path d="M5.0 -3.7 L4.5 3.1 3.55 2.35 3.25 3.3 1.8 2.45 1.75 2.7 -0.2 0.7 -3.1 -0.7 -4.25 -1.05 0.0 -0.4 1.55 0.45 0.5 -1.65 -0.7 -3.15 2.25 -1.2 3.25 0.6 3.75 -2.4 4.4 -0.9 5.0 -3.7" fill="#00349d" fill-rule="evenodd" stroke="none"/>
      <path d="M5.6 -0.4 L5.8 0.4 7.8 -2.8 8.35 -4.45 7.6 -0.1 7.55 0.65 9.3 0.35 10.15 -0.05 7.75 3.05 6.75 4.05 6.65 3.15 5.75 3.7 5.4 2.8 4.6 3.35 4.4 3.45 4.75 0.8 4.9 -3.95 5.6 -0.4" fill="#c9449a" fill-rule="evenodd" stroke="none"/>
      <path d="M-12.85 4.1 L-11.0 2.6 -8.1 1.8 -7.0 1.7 -10.1 3.05 -8.6 3.1 -12.85 4.1" fill="#e2fce7" fill-rule="evenodd" stroke="none"/>
      <path d="M-9.6 -3.55 L-14.95 -2.9 -13.35 -3.65 Q-11.45 -4.4 -9.7 -4.4 -6.85 -4.4 -3.7 -3.4 L-9.6 -3.55" fill="#9598fb" fill-rule="evenodd" stroke="none"/>
      <path d="M-9.0 -11.35 L-4.65 -10.2 -2.15 -8.6 -5.25 -9.7 -3.65 -6.35 -9.0 -11.35" fill="#9598fb" fill-rule="evenodd" stroke="none"/>
      <path d="M6.3 -2.3 L7.25 -4.55 7.65 -6.9 7.65 -3.65 Q7.55 -3.05 6.25 -2.1 L6.3 -2.3" fill="#fec8ed" fill-rule="evenodd" stroke="none"/>
    </g>
  </defs>
</svg>
